X: 289
T: On the Mountain Side
B: O'Neill's 289
N: "Slow"
N: "Collected by O'Brien"
Z: 1997 by John Chambers <jc@trillian.mit.edu>
M: 3/4
L: 1/8
K:D
A2 \
| d2 (A2 GE) | c2 (B2 AG) | (E2 D2) .D2 | D4 EF \
| G2 (A2 Bc) | d2 .e2 (ed) | (BA GA) BG | A4 (EF) |
| G2 A2  Bc | d2 e2 ed | BA GA BG | A4 A2 \
| d2 A2 GE | c2 B2 AG | (E2 D2) .D2 | D4 ||


